X: 5573
T: Bush In Bloom, The
R: reel
M: 4/4
K: Gmajor
d2BG AGEF|G2(3Bcd efge|dGBG AGEF|1 GBAF ~g3e:|2 GBAF ~g3z||
g2dg egde|gdbg ageg|g2dg egdb|agef ~g3z|
ag~g2 agef|gefd edBz|eg~g2 ea~a2|agef ~g3z:|

